X: 662
T: Roger of Coverly
P: Longways for as many as will
%R: slip-jig
B: "The Compleat Country Dancing-Master" printed by John Walsh, London ca. 1740
S: 6: CCDM1 http://imslp.org/wiki/The_Compleat_Country_Dancing-Master_(Various) V.1 p.55 #86
B: "The Dancing-Master: Containing Directions and Tunes for Dancing" printed by W. Pearson for John Walsh, London ca. 1709
S: 7: DMDfD http://digital.nls.uk/special-collections-of-printed-music/pageturner.cfm?id=89751228 p.167
Z: 2013 John Chambers <jc:trillian.mit.edu>
N: DMDfD lacks the natural sign on the c in bar 6.
N: The dance descriptions differ only in spelling and punctuation.
M: 9/4
L: 1/4
K: D
% - - - - - - - - - - - - - - - - - - - - - - - - -
A, |\
(B,/C/)DD D2B AFD | E3 EB,D C2A, |\
(B,/C/)DD D2B AFA | d2D D>ED C2A, |]
AFA BGB AFA | =c2E E>FD C2A, |\
AFA BGB AEA | d2D D>ED C2A, |]
% - - - - - - - - - - - - - - - - - - - - - - - - -
%%begintext align
%% The first Man go below the 2d Wo. then round her,
%% and so below the 2d Man into his own Place; then the
%% 1st Wo. go below the 2d Man, then round him, and so
%% below the 2d Wo. into her own Place :| The 1st C.
%% cross over below the 2d Cu. and take Hands and turn
%% twice, then lead up thro', and cast off into the 2d Cu. Place.
%% [CCDM1]
%%endtext
%%sep 1 1 500
% - - - - - - - - - - - - - - - - - - - - - - - - -
%%begintext align
%% The 1. man go below the 2. wo. then round her, and so below the 2. man into his own place; then
%% 1. wo. go below the 2. man, then round him, and so below the 2. wo. into her own place :| The 1 cu.
%% cross over below the 2. cu. and take hands and turn round twice, then lead up through and cast off
%% into the 2. cu. place.
%% [DMDfD]
%%endtext
%%sep 1 8 500

%%sep 1 1 500
%%sep 1 1 500
